icons/Twittericons.svg

<svg width="16" height="16" viewBox="0 0 16 16" fill="currentColor" xmlns="http://www.w3.org/2000/svg">
<g clip-path="url(#clip0_4_1345)">
<path d="M15.91 3.02045C15.8666 2.982 15.8117 2.95894 15.7538 2.95488C15.6959 2.95082 15.6383 2.96597 15.5899 2.99799C15.4373 3.09909 15.1799 3.21144 14.8064 3.34133C14.9105 3.22899 15.0111 3.0998 15.1025 2.95375C15.3466 2.62936 15.4964 2.23968 15.5632 2.03606C15.5802 1.983 15.5799 1.92594 15.5625 1.87304C15.545 1.82014 15.5112 1.77411 15.4659 1.74155C15.4207 1.70898 15.3662 1.69154 15.3104 1.69172C15.2546 1.69191 15.2003 1.7097 15.1553 1.74256C14.8838 1.94618 14.6285 2.13787 14.2107 2.2797C13.8956 2.43698 13.5735 2.51 13.3153 2.56898L13.2942 2.5746C12.4453 1.6878 11.0998 1.37183 9.82817 1.76924C8.07966 2.24529 7.09216 3.98098 7.53105 5.80654C7.53913 5.84019 7.55377 5.87193 7.57414 5.89994C7.59451 5.92794 7.62021 5.95167 7.64976 5.96976C7.67931 5.98785 7.71215 5.99996 7.74639 6.00539C7.78062 6.01081 7.8156 6.00945 7.84931 6.00138C7.88303 5.99331 7.91482 5.9787 7.94287 5.95836C7.97092 5.93803 7.99469 5.91238 8.01282 5.88288C8.03094 5.85337 8.04306 5.8206 8.0485 5.78642C8.05393 5.75223 8.05257 5.71732 8.04449 5.68366C7.67383 4.14107 8.50026 2.67711 9.97587 2.27478C11.1153 1.9202 12.3018 2.21931 13.0031 3.03731C13.0348 3.07464 13.0765 3.10232 13.1232 3.11721C13.17 3.13211 13.2199 3.13361 13.2675 3.12156L13.4328 3.08295C13.7043 3.02045 14.0749 2.9355 14.4133 2.76488C14.5005 2.73609 14.5821 2.70379 14.6594 2.66939C14.3148 3.21003 13.814 3.4607 13.648 3.54355C13.595 3.57016 13.5526 3.61384 13.5275 3.66752C13.5024 3.72121 13.4962 3.78176 13.5099 3.83939C13.5235 3.89703 13.5563 3.94838 13.6028 3.98516C13.6493 4.02193 13.7069 4.04198 13.7662 4.04207C13.9927 4.04207 14.3711 4.04207 14.8339 3.8876C14.9408 3.85249 15.0385 3.81879 15.13 3.78508C15.0474 3.89562 14.952 3.99602 14.8458 4.08419C14.613 4.3166 14.3078 4.47739 13.9139 4.57639C13.8539 4.59124 13.801 4.62665 13.7645 4.67644C13.728 4.72623 13.7102 4.78724 13.7141 4.84882C13.9167 8.02038 12.3215 11.0206 9.54894 12.6819C7.12874 14.1543 4.03473 14.2575 1.39509 13.0175C1.84261 13.0026 2.28665 12.9332 2.71737 12.8111C4.15219 12.453 4.99128 11.8196 5.21424 11.6343C5.25585 11.5996 5.28577 11.553 5.29992 11.5008C5.31407 11.4486 5.31177 11.3933 5.29332 11.3424C5.27488 11.2916 5.24119 11.2476 5.19684 11.2166C5.15249 11.1855 5.09962 11.1688 5.04544 11.1688C4.88789 11.1688 4.06287 11.1407 3.23081 10.5867C2.87123 10.3302 2.54619 10.0286 2.26372 9.68936C2.68533 9.72789 3.10848 9.63413 3.47417 9.42115C3.52224 9.39695 3.56177 9.35869 3.58748 9.31148C3.61319 9.26426 3.62385 9.21033 3.61804 9.15691C3.61223 9.10348 3.59022 9.0531 3.55496 9.01249C3.5197 8.97188 3.47287 8.94298 3.42072 8.92965C2.80536 8.78168 2.24228 8.46845 1.79248 8.02389C1.41693 7.6109 1.16496 7.10103 1.06522 6.55221C1.72777 6.85062 2.18072 6.85062 2.37203 6.85062C2.42864 6.85061 2.48374 6.83243 2.52919 6.79875C2.57464 6.76508 2.60804 6.7177 2.62444 6.66361C2.64084 6.60953 2.63938 6.55162 2.62027 6.49843C2.60117 6.44524 2.56542 6.3996 2.51833 6.36825C2.2602 6.19622 1.46824 5.45687 1.22418 4.35873C1.1156 3.82882 1.13052 3.28109 1.26779 2.75785C1.87618 3.44876 2.81514 4.27658 4.1536 4.85725C4.5953 5.07702 5.03137 5.22236 5.45338 5.36279C5.51834 5.37978 5.58736 5.37146 5.6464 5.33952C5.70545 5.30757 5.75012 5.2544 5.77133 5.19078C5.79254 5.12717 5.78871 5.05788 5.76062 4.99698C5.73253 4.93608 5.68228 4.88813 5.62007 4.86287C5.21565 4.72876 4.79716 4.58903 4.37656 4.37979C3.20183 3.87228 2.17318 3.07906 1.38454 2.07257C1.35714 2.03753 1.32131 2.00998 1.28037 1.9925C1.23943 1.97502 1.19473 1.96816 1.15042 1.97258C1.10612 1.977 1.06365 1.99254 1.02699 2.01776C0.990322 2.04297 0.960648 2.07705 0.940731 2.1168C0.889387 2.21861 0.445579 3.15737 0.707926 4.46756C0.869694 5.19217 1.23051 5.77705 1.57304 6.1878C1.33442 6.10423 1.10471 5.99722 0.887277 5.86833C0.847159 5.8452 0.801659 5.83301 0.755334 5.83295C0.709009 5.8329 0.663484 5.845 0.623315 5.86804C0.583146 5.89108 0.549743 5.92424 0.52645 5.96422C0.503158 6.00419 0.490793 6.04957 0.490593 6.09582C0.490593 6.39844 0.556707 7.45727 1.41197 8.3883C1.73762 8.71339 2.10969 8.97388 2.52466 9.16908C2.28338 9.1739 2.04281 9.14145 1.81147 9.07289C1.8003 9.02801 1.77749 8.98687 1.74533 8.95359C1.71318 8.92031 1.67281 8.89607 1.6283 8.88331C1.58378 8.87055 1.53668 8.86972 1.49174 8.8809C1.4468 8.89207 1.40559 8.91487 1.37228 8.94699C1.33896 8.97911 1.31471 9.01942 1.30195 9.06387C1.28919 9.10832 1.28839 9.15534 1.29961 9.2002C1.31083 9.24505 1.33369 9.28617 1.36589 9.31941C1.39808 9.35265 1.43848 9.37684 1.48301 9.38955C1.57163 9.74272 2.09351 10.4133 2.92908 11.0199C3.35308 11.3002 3.82553 11.4995 4.3224 11.6076C3.8793 11.8653 3.28356 12.1272 2.58093 12.3027C1.68487 12.5576 0.922444 12.512 0.295063 12.4347C0.235789 12.4276 0.175862 12.4408 0.125079 12.4722C0.0742962 12.5035 0.0356618 12.5511 0.0154904 12.6072C-0.00468092 12.6633 -0.0051958 12.7245 0.0140308 12.781C0.0332575 12.8374 0.0710879 12.8856 0.121338 12.9178C1.64403 13.883 3.40983 14.3969 5.21354 14.4C6.83193 14.4 8.43203 13.9787 9.82254 13.1319C12.7013 11.4075 14.3844 8.31738 14.2515 5.02787C14.6432 4.90218 14.9583 4.71612 15.201 4.47318C15.5963 4.14388 15.7728 3.76191 15.9015 3.48316L15.9719 3.33571C15.9981 3.28366 16.0063 3.22436 15.9951 3.16715C15.9839 3.10995 15.9539 3.05809 15.91 3.01975V3.02045Z" fill="#3D3D3D"/>
</g>
<defs>
<clipPath id="clip0_4_1345">
<rect width="16" height="16" fill="white"/>
</clipPath>
</defs>
</svg>

<svg xmlns="http://www.w3.org/2000/svg" width="16" height="16" fill="currentColor" class="si si-Twittericons" viewBox="0 0 16 16">
  <g clip-path="url(#a)">
    <path d="M15.91 3.02a.26.26 0 0 0-.32-.022c-.153.101-.41.213-.784.343q.158-.168.297-.387c.244-.325.393-.714.46-.918a.264.264 0 0 0-.408-.293c-.271.203-.526.395-.944.537-.315.157-.638.23-.896.289l-.02.006c-.85-.887-2.195-1.203-3.467-.806-1.748.476-2.736 2.212-2.297 4.038a.263.263 0 0 0 .513-.123c-.37-1.543.456-3.007 1.932-3.41 1.14-.354 2.326-.055 3.027.763a.26.26 0 0 0 .264.085l.166-.04c.271-.062.642-.146.98-.317q.132-.043.246-.096c-.344.541-.845.792-1.011.875a.264.264 0 0 0 .118.498c.227 0 .605 0 1.068-.154q.16-.054.296-.103-.125.166-.284.3c-.233.232-.538.392-.932.491a.264.264 0 0 0-.2.273c.203 3.171-1.392 6.172-4.165 7.833-2.42 1.472-5.514 1.576-8.154.335a5.5 5.5 0 0 0 1.322-.206c1.435-.358 2.274-.991 2.497-1.177a.264.264 0 0 0-.169-.465c-.157 0-.982-.028-1.814-.582a5.2 5.2 0 0 1-.967-.898c.421.039.844-.055 1.21-.268a.264.264 0 0 0-.053-.491 3.47 3.47 0 0 1-1.629-.906 3 3 0 0 1-.727-1.472c.663.299 1.116.299 1.307.299a.264.264 0 0 0 .146-.483c-.258-.172-1.05-.911-1.294-2.01a3.5 3.5 0 0 1 .044-1.6 8.2 8.2 0 0 0 2.886 2.1c.441.219.877.364 1.3.505a.265.265 0 0 0 .307-.366.26.26 0 0 0-.14-.134c-.405-.134-.824-.274-1.244-.483a7.66 7.66 0 0 1-2.992-2.307.264.264 0 0 0-.444.044c-.052.102-.495 1.04-.233 2.35a4.1 4.1 0 0 0 .865 1.72 4 4 0 0 1-.686-.319.265.265 0 0 0-.396.228c0 .302.066 1.361.921 2.292q.49.488 1.113.781a2.4 2.4 0 0 1-.714-.096.263.263 0 1 0-.328.317c.089.353.61 1.023 1.446 1.63.424.28.897.48 1.393.588a6.8 6.8 0 0 1-1.741.695c-.896.255-1.659.209-2.286.132a.264.264 0 0 0-.174.483A9.54 9.54 0 0 0 5.214 14.4a8.85 8.85 0 0 0 4.609-1.268c2.878-1.724 4.561-4.815 4.429-8.104q.586-.19.949-.555c.395-.33.572-.711.7-.99l.07-.147a.26.26 0 0 0-.061-.316"/>
  </g>
  <defs>
    <clipPath id="a">
      <path d="M0 0h16v16H0z"/>
    </clipPath>
  </defs>
</svg>
